Newaita/actions/scalable/align-horizontal-right.svg

<?xml version="1.0" encoding="UTF-8"?>
<svg xmlns="http://www.w3.org/2000/svg" xmlns:xlink="http://www.w3.org/1999/xlink" width="512pt" height="512pt" viewBox="0 0 512 512" version="1.1">
<g id="surface1">
<path style=" stroke:none;fill-rule:nonzero;fill:rgb(100%,43.921569%,26.274511%);fill-opacity:0.988235;" d="M 476.296875 453.835938 L 476.296875 62.214844 C 476.296875 53.445312 469.1875 46.335938 460.417969 46.335938 C 451.652344 46.335938 444.542969 53.445312 444.542969 62.214844 L 444.542969 453.835938 C 444.542969 462.601562 451.652344 469.710938 460.417969 469.710938 C 469.1875 469.710938 476.296875 462.601562 476.296875 453.835938 Z M 476.296875 453.835938 "/>
<path style=" stroke:none;fill-rule:nonzero;fill:rgb(25.882354%,25.882354%,25.882354%);fill-opacity:0.988235;" d="M 402.207031 437.957031 C 402.207031 455.550781 388.042969 469.710938 370.453125 469.710938 L 264.609375 469.710938 C 247.015625 469.710938 232.855469 455.550781 232.855469 437.957031 L 232.855469 332.113281 C 232.855469 314.523438 247.015625 300.363281 264.609375 300.363281 L 370.453125 300.363281 C 388.042969 300.363281 402.207031 314.523438 402.207031 332.113281 Z M 370.453125 427.375 L 370.453125 342.699219 C 370.453125 336.835938 365.730469 332.113281 359.867188 332.113281 L 275.191406 332.113281 C 269.328125 332.113281 264.609375 336.835938 264.609375 342.699219 L 264.609375 427.375 C 264.609375 433.238281 269.328125 437.957031 275.191406 437.957031 L 359.867188 437.957031 C 365.730469 437.957031 370.453125 433.238281 370.453125 427.375 Z M 370.453125 427.375 "/>
<path style=" stroke:none;fill-rule:nonzero;fill:rgb(25.882354%,25.882354%,25.882354%);fill-opacity:0.988235;" d="M 402.207031 183.933594 C 402.207031 201.523438 388.042969 215.6875 370.453125 215.6875 L 63.507812 215.6875 C 45.914062 215.6875 31.753906 201.523438 31.753906 183.933594 L 31.753906 78.089844 C 31.753906 60.5 45.914062 46.335938 63.507812 46.335938 L 370.453125 46.335938 C 388.042969 46.335938 402.207031 60.5 402.207031 78.089844 Z M 370.453125 173.351562 L 370.453125 88.675781 C 370.453125 82.8125 365.730469 78.089844 359.867188 78.089844 L 74.089844 78.089844 C 68.226562 78.089844 63.507812 82.8125 63.507812 88.675781 L 63.507812 173.351562 C 63.507812 179.214844 68.226562 183.933594 74.089844 183.933594 L 359.867188 183.933594 C 365.730469 183.933594 370.453125 179.214844 370.453125 173.351562 Z M 370.453125 173.351562 "/>
</g>
</svg>

<svg xmlns="http://www.w3.org/2000/svg" width="512pt" height="512pt" viewBox="0 0 512 512"><g fill-opacity=".988"><path d="M476.297 453.836V62.215c0-8.77-7.11-15.88-15.879-15.88-8.766 0-15.875 7.11-15.875 15.88v391.62c0 8.767 7.11 15.876 15.875 15.876 8.77 0 15.879-7.11 15.879-15.875zm0 0" fill="#ff7043"/><path d="M402.207 437.957c0 17.594-14.164 31.754-31.754 31.754H264.61a31.682 31.682 0 0 1-31.754-31.754V332.113c0-17.59 14.16-31.75 31.754-31.75h105.844c17.59 0 31.754 14.16 31.754 31.75zm-31.754-10.582v-84.676a10.564 10.564 0 0 0-10.586-10.586h-84.676A10.561 10.561 0 0 0 264.61 342.7v84.676a10.558 10.558 0 0 0 10.582 10.582h84.676a10.561 10.561 0 0 0 10.586-10.582zm0 0M402.207 183.934c0 17.59-14.164 31.754-31.754 31.754H63.508c-17.594 0-31.754-14.165-31.754-31.754V78.09c0-17.59 14.16-31.754 31.754-31.754h306.945c17.59 0 31.754 14.164 31.754 31.754zm-31.754-10.582V88.676a10.564 10.564 0 0 0-10.586-10.586H74.09a10.561 10.561 0 0 0-10.582 10.586v84.676a10.558 10.558 0 0 0 10.582 10.582h285.777a10.561 10.561 0 0 0 10.586-10.582zm0 0" fill="#424242"/></g></svg>
